src/components/block/logo/images/logo.svg

<svg xmlns="http://www.w3.org/2000/svg" width="512" height="512" fill="none"><rect width="512" height="512" fill="#fff" rx="30"/><path fill="#282A36" d="M129 92c-5-4.9999-56 0-61 5-4.9999 5-4.9999 314.001 0 319 5 5 56 10.001 61 5 4.683-4.683.594-167.269.056-187.863-.035-1.372.743-2.145 1.659-1.122C144.459 247.35 227.289 416.29 232 421c5 5 207.001 5.001 212 0 5-5 5-169 0-174-4.999-5-107-5-112 0-4.999 5-4.999 39 0 44 4.389 4.389 42.68 1.073 51.974.197 1.305-.123 2.569.318 2.986 1.56 4.017 11.953 3.696 75.587-.96 80.243-4.999 5.001-88 5-93 0-5-4.999-4.999-224 0-229 4.657-4.658 77.011-4.977 90.93-.956 1.415.409 2 1.78 1.885 3.249-.858 10.92-4.222 57.299.185 61.707 5 5 53.001 5 58 0 5-5 5-111 0-116-4.999-4.9999-207-5.0003-212 0-4.682 4.6827-.595 166.342-.057 186.865.036 1.373-.743 2.145-1.663 1.126C216.524 264.728 133.71 96.7105 129 92z"/></svg>

<svg width="512" height="512" viewBox="0 0 512 512" fill="none" xmlns="http://www.w3.org/2000/svg">
<rect width="512" height="512" rx="30" fill="white"/>
<path d="M129 92C124 87.0001 73 92 68 97C63.0001 102 63.0001 411.001 68 416C73 421 124 426.001 129 421C133.683 416.317 129.594 253.731 129.056 233.137C129.021 231.765 129.799 230.992 130.715 232.015C144.459 247.35 227.289 416.29 232 421C237 426 439.001 426.001 444 421C449 416 449 252 444 247C439.001 242 337 242 332 247C327.001 252 327.001 286 332 291C336.389 295.389 374.68 292.073 383.974 291.197C385.279 291.074 386.543 291.515 386.96 292.757C390.977 304.71 390.656 368.344 386 373C381.001 378.001 298 378 293 373C288 368.001 288.001 149 293 144C297.657 139.342 370.011 139.023 383.93 143.044C385.345 143.453 385.93 144.824 385.815 146.293C384.957 157.213 381.593 203.592 386 208C391 213 439.001 213 444 208C449 203 449 97 444 92C439.001 87.0001 237 86.9997 232 92C227.318 96.6827 231.405 258.342 231.943 278.865C231.979 280.238 231.2 281.01 230.28 279.991C216.524 264.728 133.71 96.7105 129 92Z" fill="#282A36"/>
</svg>
